!!!OTL: 676. Hobellied aus dem "Verschwender."
!!!COM: Konr. Kreutzer
!!!ODT: 1834
!!!ARE: Europa, Mitteleuropa, Deutschland
!!!SCT: B0676
!!!TXL: @@DE
!!!YEM: Copyright 1995, estate of Helmut Schaffrath.
**kern	**text
*ICvox	*
*Ivox	*
*clefG2	*
*M4/4	*
*met(c)	*
*k[f#]	*
*G:	*
{4dd	Da
=1	=1
4ee	ſtrei-
4dd	-ten
4cc	ſich
4b	die
=2	=2
4b	Leut'
4a	her-
4a	-um
8r}	.
{8b	oft
=3	=3
4.dd	um
8cc	den
4b	Werth
4a	des
=4	=4
2g	Glücks,
4r}	.
{4dd	der
=5	=5
4ee	ei-
4dd	-ne
4cc	nennt
4b	den
=6	=6
4b	an-
4a	-dern
4a	dumm,
8r}	.
{8b	am
=7	=7
4.dd	End'
8cc	weiß
4b	kei-
4a	-ner
=8	=8
2g	nix.
4r}	.
{4b	Da
=9	=9
4a	iſt
4a	der
4b	al-
4cc#	-ler-
=10	=10
4dd	-ärm-
4a	-ſte
4ff#	Mann
8r}	.
{8dd	dem
=11	=11
4cc#	an-
4a	-dern
4.gg	viel
8cc#	ʒu
=12	=12
2dd;	reich:
4r}	.
{4dd	das
=13	=13
4ee	Schickſal
4dd	.
4ccn	ſetʒt
4a	den
=14	=14
4b	Ho-
4dd	-bel
4gg;}	an
{4dd	und
=15	=15
4.ff#	ho-
8ee	-belt
4dd	bei-
4f#	-de
=16	=16
2g	gleich.
4r}	.
{4dd	das
=17	=17
4ee	Schickſal
4dd	.
4ccn	ſetʒt
4a	den
=18	=18
4b	Ho-
4dd	-bel
4gg;}	an
{4dd	und
=19	=19
4.ff#	ho-
8ee	-belt
4dd	bei-
4f#	-de
=20	=20
2g	gleich.
4r}	.
==	==
!!!AGN: Moral - Lied, Vergaenglichkeit
!!!GTL: Didaktische Lieder: Betrachtungen, Vergleiche und Moralisationen
!!!ONB: ESAC (Essen Associative Code) Database: BOEHME
!!!AMT: simple quadruple
!!!AIN: vox
!!!EED: Helmut Schaffrath
!!!EEV: 1.0
!!Konr. Kreutzer. 1834.
!!@@COMMENT:"Aus dem Ʒaubermärchen Der Verſchwender". Text ged. von Ferd. Raimund 1833. Die eingelegten Muſikſtücke ſind von 
!!Konradin Kreutʒer. Ʒuerſt in Wien aufgeführt 1834 und noch ein heute gern geſehenes Volksſtück beſter Art. 
!!Auf die äußerſt beliebt geweſene Melodie wurden ʒahlloſe heitere geſellige Gelegenheitsgedichte gemacht und 
!!geſungen. Vom Text ſteht oben die urſprüngliche Lesart; doch im Volksmunde haben ſich folgende
!!unweſentliche Varianten herausgebildet: 1, 2 Wohl um den Werth. 1, 3 Den eine heißt.
!!1, 8 alle (alles) gleich. 2, 1 ſtets mit Gewalt. 2, 2 vorlaut (glücklich ſein. 3, 3 ein bischen,
!!ein wenig alt. 2, 4 ſo giebt man ſchon ſich. 3, 5 doch ſpricht er. 3, 8 Ade!"
!!@@END:
!!!Text: F. Raimund
!!!URL-scan: https://archive.org/details/BoehmeVtLieder1895/page/n527/mode/2up
!!!ENC: Anna Maria Matuszewska
!!!EEV: 2024/17/07
*-	*-
